X: 1
T: OLD FIGARY O' -- JIG
B: Ryan's Mammoth Collection of Fiddle Tunes
R: jig
M: 6/8
L: 1/8
Z: Contributed 20000421031627 by John Chambers jcsd:world.std.com
K: D
uA \
| d2d d2A | B2A ABc | d2d ede | f2d def |
| g2g f2f | efd cBA | BAG FGA | B2c d2 :|
|: uf \
| a2a fdf | g2e efg | a2a fdf | ecA A2(f/g/) |
| a2a g2g | fgd cBA | BAG FGA | B2c d2 :|
